!! "Resplendent Administration", (court dance suite) No. 47 from Jonathan Condit,
!! 'Music of the Korean Renaissance; Songs and dances of the fifteenth century',
!! London: Cambridge University Press, 1984, ISBN 0 521 24399 8; pp.122-124
!! pluck	wind	voice
!!  str.
**kern	**kern	**kern
*M12/8	*M12/8	*M12/8
=1	=1	=1
4r	4r	4r
12GG	{12G	{12G
24AA	[24A	[24a
4AA	4.A]	4A}]
8AA	.	{8A
4C	2.c	4c}
8C	.	[8c
4C	.	4c]
8C	.	{8c
=2	=2	=2
4D	[4.d	4d}
8D	.	[{8d
4D	4d]	4d]
8C	[8c	[8c
4C	2.c_	2.c_
8C	.	.
4C	.	.
8C	.	.
=3	=3	=3
8C	8c}]	8c}]
8AA	{8A	{8A
8D	[8d	[8d
4D	4.d]	4d]
8D	.	{8d
4E	4.e	4e}
8E	.	{8e
4D	4.d	4d}
8D	.	{8d
=4	=4	=4
8C	8c	8c
8AA	8A	8A}
8C	[8c	[{8c
4C	4c]	4c]
8AA	[8A	[8A
4AA	2.A_	2.A_
8AA	.	.
4AA	.	.
8AA	.	.
=5	=5	=5
8AA	8A}]	8A}]
8A	{4a	{4a
8A	.	.
4G	4.g	4g}
8G	.	{8g
4E	[4.e	4e}
8E	.	{8e
4E	4e]	4e
8D	8d	{8d
=6	=6	=6
8C	8c	8c
8D	8d	8d}
8E	[8e	[{8e
4E	4e]	4e]
8G	[8g	[8g
4G	2.g_	2.g_
8G	.	.
4G	.	.
8G	.	.
=7	=7	=7
8G	8g}]	8g}]
8E	{8e	{8e
8A	[8a	[8a
4A	4.a]	4a}]
8A	.	{8a
4G	[4.g	4g}
8G	.	[8g
4G	4g]	4g]
8E	[8e	[{8e
=8	=8	=8
8E	8e]	8e]
8G	4g	8g}
8G	.	{8g
4E	4e	4e
8D	[8d	[8d
4D	2.d_	2.d_
8D	.	.
4D	.	.
8D	.	.
=9	=9	=9
8D	8d}]	8d}]
8C	{8c	{8c
8E	[8e	[8e
4E	4e]	4e}]
8D	[8d	[8d
4D	4.d]	4d]
8D	.	{8d
4C	4c	4c}
8AA	8A	{8A
=10	=10	=10
4C	4c	4c}
8D	[8d	[{8d
4D	4d]	4d]
8E	[8e	[8e
4E	2.e_	2.e_
8E	.	.
4E	.	.
8E	.	.
=11	=11	=11
8E	8e}]	8e}]
8G	{8g	{8g
8A	[8a	[8a
4A	4.a]	4a}]
8A	.	{8a
4G	[4.g	4g}
8G	.	{8g
8G	8g]	8g
8E	[4e	8e}
8E	.	[{8e
=12	=12	=12
8E	8e]	8e]
8A	[4a	8a}
8A	.	[{8a
4A	4a]	4a]
8G	[8g	[8g
4G	2.g_	2.g_
8G	.	.
4G	.	.
8G	.	.
=13	=13	=13
8G	8g}]	8g}]
8E	{8e	{8e
8D	8d	8d
4E	[4.e	4e}
8E	.	[{8e
8E	8e]	8e]
12A	12a	12a
24G	24g	24g}
8E	[8e	[8e
4E	4e]	4e]
8D	[8d	[{8d
=14	=14	=14
8D	8d]	8d]
8C	8c	8c}
8AA	[8A	[8A
4AA	4A]	4A]
8C	[8c	[8c
4C	2.c_	2.c_
8C	.	.
4C	.	.
8C	.	.
=15	=15	=15
8C	8c}]	8c}]
8D	{8d	{8d
8G	[8g	[8g
4G	4.g]	4g}]
8G	.	{8g
4E	[4.e	4e}
8E	.	[{8e
8E	8e]	8e]
8D	4d	8d}
8D	.	{8d
=16	=16	=16
4C	4c	4c}
8D	8d	{8d
4C	4c	4c
8AA	[8A	[8A
4AA	2.A_	2.A_
8AA	.	.
4AA	.	.
8AA	.	.
=17	=17	=17
8AA	8A}]	8A}]
8A	{8a	{8a
8E	[8e	[8e
4E	4.e]	4e}]
8E	.	{8e
4G	4.g	4g}
8G	.	{8g
4E	4e	4e}
8D	[8d	[{8d
=18	=18	=18
8D	8d]	8d]
8C	8c	8c}
8AA	[8AA	[{8AA
4AA	4A]	4A]
8E	[8e	[8e
4E	2.e_	2.e_
8E	.	.
4E	.	.
8E	.	.
=19	=19	=19
8E	8e}]	8e}]
8D	{8d	{8d
12C	12c	12c
24AA	24A	24A
4C	4c	4c}
8AA	8A	{8A
8C	8c	8c
8D	8d	8d}
8E	[8e	[8e
4E	4.e]	4e]
8E	.	{8e
=20	=20	=20
8G	8g	8g
8A	[4a	8a}
8A	.	[{8a
4A	4a]	4a]
8G	[8g	[8g
4G	2.G_	2.G_
8G	.	.
4G	.	.
8G	.	.
=21	=21	=21
8G	8g}]	8g}]
8E	{4e	{4e
8E	.	.
4D	4d	4d}
8C	[8c	[{8c
8C	8c]	8c]
8D	8d	8d}
8E	[8e	[8e
4E	4.e]	4e]
8E	.	{8e
=22	=22	=22
4G	4g	4g}
8E	[8e	[{8e
8E	8e]	8e]
8D	[4d	[4d
8D	.	.
4D	2.f_	2.d_
8D	.	.
4D	.	.
8D	.	.
=23	=23	=23
8D	8d}]	8d}]
8AA	{8A	{8A
8C	[8c	[8c
4C	4c]	4c}]
8AA	8A	{8A
4C	4c	4c}
8AA	8A	{8A
4D	4.d	4d}
8D	.	{8d
=24	=24	=24
4C	4.c	4c}
8C	.	{8c
4AA	4A	4A
8GG	[8G	[8G
4GG	2.G_	2.G_
8GG	.	.
4GG	.	.
8GG	.	.
=25	=25	=25
4GG	4G}]	4G}]
====	====	====
*-	*-	*-
